X: 305707
M: 6/8
L: 1/8
K: G
dcd g2d | b2g g/a/g/f//g// | afd ded | c3 B3 |\
dBd g2d | b2g g/a/g/f/g | abc' def | a3 g2 H|]
g/b/ |\
d'2d' d'^c'd' | b3 g3 | d2d B2B | G3 G2 g |\
b2b g2g | ^d3 e3 | ABc DEF | A3 "^D.C."G2 |]
eee ggg | BBB ccc | B2A G2F | E3 E3 |\
eee ggg | b3 e'3 | g2b f2a | e3 "^D.C."e2 |]


